X:1267
T:The Merry Sisters
R:Reel
N: Collected by Mrs. Cantwell
B:O'Neill's 1267
Z: Transcribed by Trish O'Neil
Z: Corrected by John Chambers
M:C|
L:1/8
K:Edor
"Em"B>E (3EEE "Bm"BdcA | "Em"B>E (3EEE "D"dAFA | "Em"B>E (3EEE "Bm"BdcA | "Bm"d>D (3DDD "D"ADFA :|
"Em"Beec"D"d2cA | "Em"Beec "D"dAFA | "Em"Beec"D"d2cA | "Bm"BABc "D"dAFA |
"Em"Beec"D"d2cA | "Em"Beec "Bm"defg | "D"af (3gfe "Bm"fdec | "Bm"BABc "D"dAFA ||
"Bm"BdcA "Bm"BFAF | "Em"B>E (3.E.E.E "Bm"BEFA | "Bm"BdcA "Bm"BFAF | "Bm"d>D (3.D.D.D "D"ADFA |
"Bm"BdcA "Bm"BFAF | "Em"B>E (3.E.E.E "Bm"BEFA | "D"DFAc"G"d2eg | "Bm"fdec "D"dAFA |]
